!!!ONR: No. 11
!! From Harold Courlander, "Haiti Singing"
!! Chapel Hill: University of North Carolina Press, 1939
!! Copyright University of North Carolina Press
!!!ENC: D. Huron
**kern
*clefG2
*k[]
*M2/4
=1-
6a
6cc
[6dd
=2
8dd]
8cc
8a
8a
=3
2a
=4
6a
6a
[6f
=5
2f]
=6
6a
6cc
[6dd
=7
8dd]
8cc
8g
8g
=8
6g
6a
[6f
=9
8f]
8d
8g
8g
=10
[2g
=11
2g]
=12
6f
6f
[6d
=13
8d]
8c
8A
8A
=14
8A
[8a
12a]
(12g
12a)
=15
2f
=16
6a
6cc
[6dd
=17
8dd]
8cc
8g
8g
=18
6g
6a
[6f
=19
8f]
8g
8g
[8g
=20
2g]
==
*-
